X:615
T:Reel 615
M:4/4
K:Gmaj
L:1/8
 (3cBA |G2BG AcBA|GEDE cEBA|G2BG ABce|dBAB c2BA|G2BG AcBA|G2BG GEDE|G2BG ABce|dBAB G2| (3def |g2ge d2Bd|g2ge dcBA|Gggf gedB|AcBG AGEG|gfgd e2dB|dcdc BGBd|efge dBdc|dBAB G2|
